www/assets/icons/network_check.svg

<svg width="24" height="24" viewBox="0 0 24 24" xmlns="http://www.w3.org/2000/svg" fill='currentColor'><path d="M15.9 4.77117C15.73 4.77117 15.58 4.86117 15.49 5.00117L15.42 5.15117L10.24 16.8012C10.08 17.0912 9.98 17.4112 9.98 17.7612C9.98 18.8712 10.88 19.7712 11.99 19.7712C12.95 19.7712 13.76 19.0912 13.95 18.1812L13.96 18.1512L16.4 5.27117C16.4 4.99117 16.18 4.77117 15.9 4.77117ZM1 8.77116L3 10.7712C5.88 7.89116 9.79 6.69116 13.53 7.15117L14.72 4.47116C9.89 3.61116 4.74 5.04116 1 8.77116ZM21 10.7712L23 8.77116C21.36 7.13117 19.45 5.95116 17.41 5.20116L16.88 8.02116C18.38 8.64116 19.78 9.55116 21 10.7712ZM17 14.7712L19 12.7712C18.2 11.9712 17.3 11.3512 16.34 10.8812L15.79 13.8012C16.21 14.0712 16.62 14.3912 17 14.7712ZM5 12.7712L7 14.7712C8.13 13.6412 9.56 12.9812 11.03 12.7712L12.31 9.89116C9.68 9.81116 7.01 10.7612 5 12.7712Z"/></svg>

<svg xmlns="http://www.w3.org/2000/svg" width="24" height="24" viewBox="0 0 24 24" fill='currentColor'><path d="M15.9 4.771c-.17 0-.32.09-.41.23l-.07.15-5.18 11.65c-.16.29-.26.61-.26.96 0 1.11.9 2.01 2.01 2.01.96 0 1.77-.68 1.96-1.59l.01-.03 2.44-12.88c0-.28-.22-.5-.5-.5m-14.9 4 2 2c2.88-2.88 6.79-4.08 10.53-3.62l1.19-2.68c-4.83-.86-9.98.57-13.72 4.3m20 2 2-2a15.4 15.4 0 0 0-5.59-3.57l-.53 2.82c1.5.62 2.9 1.53 4.12 2.75m-4 4 2-2c-.8-.8-1.7-1.42-2.66-1.89l-.55 2.92c.42.27.83.59 1.21.97m-12-2 2 2a7.1 7.1 0 0 1 4.03-2l1.28-2.88c-2.63-.08-5.3.87-7.31 2.88"/></svg>
